NotoEmoji/emoji_u2b55.svg

<svg enable-background="new 0 0 128 128" viewBox="0 0 128 128" xmlns="http://www.w3.org/2000/svg"><path d="m64 28c19.8 0 36 16.2 36 36s-16.2 36-36 36-36-16.2-36-36 16.2-36 36-36m0-24c-33.1 0-60 26.9-60 60s26.9 60 60 60 60-26.9 60-60-26.9-60-60-60z" fill="#f44336"/><path d="m64 4c-23.9 0-44.6 14-54.2 34.3 9.1-18.5 28.2-31.3 50.3-31.3 31 0 56.1 25.1 56.1 56.1s-25.1 56.1-56.1 56.1c-30.8 0-55.8-24.9-56.1-55.7v.5c0 33.1 26.9 60 60 60s60-26.9 60-60-26.9-60-60-60z" fill="#c33"/><path d="m65.6 26.7c-15 0-28 8.8-34 21.5 5.7-11.6 17.7-19.7 31.6-19.7 19.4 0 35.2 15.8 35.2 35.2s-15.8 35.2-35.2 35.2c-19.3 0-35-15.6-35.2-34.9v.3c0 20.8 16.9 37.6 37.6 37.6s37.6-16.9 37.6-37.6-16.8-37.6-37.6-37.6z" fill="#c33"/><path d="m24 29.7c4.5-7.1 14.1-13 24.1-14.8 2.5-.4 5-.6 7.1.2 1.6.6 2.9 2.1 2 3.8-.7 1.4-2.6 2-4.1 2.5-9.3 3-17.8 9.5-23 17.4-2 3-5 11.3-8.7 9.2-3.9-2.3-3.1-9.5 2.6-18.3z" fill="#fff" opacity=".2"/></svg>

<?xml version="1.0" encoding="utf-8"?>
<!-- Generator: Adobe Illustrator 25.2.3, SVG Export Plug-In . SVG Version: 6.00 Build 0)  -->
<svg version="1.1" id="Layer_1" xmlns="http://www.w3.org/2000/svg" xmlns:xlink="http://www.w3.org/1999/xlink" x="0px" y="0px"
	 viewBox="0 0 128 128" style="enable-background:new 0 0 128 128;" xml:space="preserve">
<path style="fill:#F44336;" d="M64,28c19.8,0,36,16.2,36,36s-16.2,36-36,36S28,83.8,28,64S44.2,28,64,28 M64,4C30.9,4,4,30.9,4,64
	s26.9,60,60,60s60-26.9,60-60S97.1,4,64,4z"/>
<path style="fill:#CC3333;" d="M64,4C40.1,4,19.4,18,9.8,38.3C18.9,19.8,38,7,60.1,7c31,0,56.1,25.1,56.1,56.1s-25.1,56.1-56.1,56.1
	C29.3,119.2,4.3,94.3,4,63.5c0,0.2,0,0.3,0,0.5c0,33.1,26.9,60,60,60s60-26.9,60-60S97.1,4,64,4z"/>
<path style="fill:#CC3333;" d="M65.6,26.7c-15,0-28,8.8-34,21.5c5.7-11.6,17.7-19.7,31.6-19.7c19.4,0,35.2,15.8,35.2,35.2
	S82.6,98.9,63.2,98.9c-19.3,0-35-15.6-35.2-34.9c0,0.1,0,0.2,0,0.3c0,20.8,16.9,37.6,37.6,37.6s37.6-16.9,37.6-37.6
	S86.4,26.7,65.6,26.7z"/>
<path style="opacity:0.2;fill:#FFFFFF;enable-background:new    ;" d="M24,29.7c4.5-7.1,14.1-13,24.1-14.8c2.5-0.4,5-0.6,7.1,0.2
	c1.6,0.6,2.9,2.1,2,3.8c-0.7,1.4-2.6,2-4.1,2.5c-9.3,3-17.8,9.5-23,17.4c-2,3-5,11.3-8.7,9.2C17.5,45.7,18.3,38.5,24,29.7z"/>
</svg>
